X: 22626
T: Laihian Polkka
R: polka
M: 2/4
K: Bminor
|:Bd/f/ Bd/f/|fg/b/ fg/b/|ff/g/ f/e/d/c/|d/e/d/c/ BF/A/|
Bd/f/ Bd/f/|fg/b/ fg/b/|ff/g/ f/e/d/c/|BF B2:|
|:bb/a/ gf/g/|aA c/A/c/e/|a>g fe/f/|ad f/d/f/a/|
bb/a/ gf/g/|aA c/A/c/e/|a>g fe|1 d2 d/e/f/a/:|2 d4||

